X:1
T:Robert Exham
T:St Perpetua
%%score { ( 1 2 ) | ( 3 4 ) }
L:1/8
Q:1/4=184
M:3/2
K:F
V:1 treble 
V:2 treble 
V:3 bass 
V:4 bass 
V:1
"^Presto" A4 | c2 F2 A4 G4 | F8 A4 | B2 d2 c4 F4 | G8 A4 | c2 A2 F4 G4 | A8 d4 | c2 A2 A4 G4 | F8 | %9
 F8 F8 |] %10
V:2
 F4 | E2 D2 F4 E4 | F8 F4 | F2 F2 F4 F4 | E8 E4 | F2 C2 D4 D4 | F8 E4 | F2 F2 E4 E4 | F8 | D8 C8 |] %10
V:3
 C4 | C2 A,2 C4 B,4 | A,8 C4 | B,2 B,2 C4 =B,4 | C8 C4 | A,2 F,2 F,4 B,4 | A,8 B,4 | C2 C2 C4 B,4 | %8
 A,8 | B,8 A,8 |] %10
V:4
 F,4 | A,,2 D,2 C,4 C,4 | F,8 _E,4 | D,2 B,,2 A,,4 D,4 | C,8 A,,4 | F,,2 A,,2 D,4 G,,4 | D,8 G,,4 | %7
 A,,2 F,,2 C,4 C,4 | F,8 | B,,8 F,8 |] %10

